X:384
T:B384-  The Queen's Almain
Q:1/4=120
L:1/4
M:C|
K:G dorian
GABG|A2^F2|G2A2|[1 D2z2:|[2 D2zB/c/||:\
d3/2c/BA|BA/G/FF|BcdB|c/B/A/G/^FG/A/|\
B/A/G/F/EF/G/|A/G/F/E/ D/E/F/D/|E/F/G2^F|\
[1 G2z/ G/4^F/4 G/4A/4B/4c/4:| [2 G2z2|]

